contributed-vectors/morchana.svg

<svg xmlns="http://www.w3.org/2000/svg" width="192" height="192" fill="none"><g clip-path="url(#a)"><g clip-path="url(#b)"><path fill="#9ABEFF" d="M172 28.6v133.9c0 5.3-4.3 9.6-9.6 9.6H28.6c-5.3 0-9.6-4.3-9.6-9.6V28.6c0-5.3 4.3-9.6 9.6-9.6h133.9c5.2 0 9.5 4.3 9.5 9.6Z"/><path fill="#fff" d="M120.2 89.4c0-.8-.4-1.5-1-1.9.1-.7.3-1.3.3-2 .4-3.1.1-6.4-.7-9.5-.9-3.1-2.4-6-4.3-8.5-1.8-2.2-3.9-4-6.4-5.4-2-1.1-4.3-1.9-6.6-2.3-.3-.5-.8-.8-1.4-.8-.9 0-1.6.7-1.6 1.6 0 .9.7 1.6 1.6 1.6.3 0 .7-.1.9-.3 4.7.8 8.7 3.2 11.7 6.9 3.6 4.5 5.3 10.4 4.5 16.2-.1.7-.2 1.3-.3 2-.8.3-1.4 1-1.5 1.8-.7 2.9-2.2 6.2-4.2 9.7-3.4-3.9-7-7-8.6-8.4.9-1.4 1.4-3 1.4-4.7 0-4.9-4-8.9-8.9-8.9s-8.9 4-8.9 8.9 4 8.9 8.9 8.9c2 0 3.9-.7 5.4-1.9 1.7 1.4 5.5 4.7 9 8.9-4.2 6.7-9.8 13.5-14.1 18.2-7.3-7.6-18.4-21.2-19.8-30.3-.1-.9-.6-1.6-1.4-2l-.3-2.1c-.6-6.2 1.3-12.6 5.2-17 3.3-3.8 7.6-5.9 12.6-6.3.3.3.7.5 1.2.5.9 0 1.6-.7 1.6-1.6 0-.9-.8-1.7-1.7-1.7-.5 0-.9.2-1.2.5-5.6.4-10.6 2.8-14.3 7.1-4.3 4.9-6.4 12-5.8 18.8.1.7.2 1.4.3 2-.6.4-1.1 1.2-1.1 2v.5c1 5.8 4.9 13.1 11.6 21.8 5.1 6.6 10.3 11.9 11.2 12.9.5.5 1.2.8 1.8.8.2 0 .5 0 .7-.1 2.1 1 5.5 2 9 2h.7c2.5-.1 5.1-.6 7.1-1.3 2.7-1 4.6-2.4 5.6-4.1 1.8-3.2 1.9-6.9.4-11.2-.9-2.5-2.4-5.3-4.5-8.1 2.9-4.8 5-8.9 5.8-12.4.1-.3.1-.6.1-.8Zm-4.2 31c-1.4 2.4-6.1 3.7-10.2 3.8-2.4.1-4.6-.4-6.1-.9l-.9-.3c2-2.2 5.7-6.4 9.4-11.4 1.7-2.2 3.1-4.3 4.5-6.3 3.3 4.9 5.8 10.6 3.3 15.1Z"/></g></g><defs><clipPath id="a"><path fill="#fff" d="M0 0h192v192H0z"/></clipPath><clipPath id="b"><path fill="#fff" d="M19 19h153v153.1H19z"/></clipPath></defs></svg>

<svg width="192" height="192" viewBox="0 0 192 192" fill="none" xmlns="http://www.w3.org/2000/svg">
<g clip-path="url(#clip0)">
<g clip-path="url(#clip1)">
<path d="M172 28.6V162.5C172 167.8 167.7 172.1 162.4 172.1H28.6C23.3 172.1 19 167.8 19 162.5V28.6C19 23.3 23.3 19 28.6 19H162.5C167.7 19 172 23.3 172 28.6Z" fill="#9ABEFF"/>
<path d="M120.2 89.4C120.2 88.6 119.8 87.9 119.2 87.5C119.3 86.8 119.5 86.2 119.5 85.5C119.9 82.4 119.6 79.1 118.8 76C117.9 72.9 116.4 70 114.5 67.5C112.7 65.3 110.6 63.5 108.1 62.1C106.1 61 103.8 60.2 101.5 59.8C101.2 59.3 100.7 59 100.1 59C99.1999 59 98.5 59.7 98.5 60.6C98.5 61.5 99.1999 62.2 100.1 62.2C100.4 62.2 100.8 62.1 101 61.9C105.7 62.7 109.7 65.1 112.7 68.8C116.3 73.3 118 79.2 117.2 85C117.1 85.7 117 86.3 116.9 87C116.1 87.3 115.5 88 115.4 88.8C114.7 91.7 113.2 95 111.2 98.5C107.8 94.6 104.2 91.5 102.6 90.1C103.5 88.7 104 87.1 104 85.4C104 80.5 99.9999 76.5 95.0999 76.5C90.1999 76.5 86.1999 80.5 86.1999 85.4C86.1999 90.3 90.1999 94.3 95.0999 94.3C97.0999 94.3 99 93.6 100.5 92.4C102.2 93.8 106 97.1 109.5 101.3C105.3 108 99.7 114.8 95.4 119.5C88.1 111.9 76.9999 98.3 75.5999 89.2C75.4999 88.3 75 87.6 74.2 87.2C74.1 86.5 74 85.8 73.9 85.1C73.3 78.9 75.1999 72.5 79.0999 68.1C82.3999 64.3 86.6999 62.2 91.6999 61.8C91.9999 62.1 92.4 62.3 92.9 62.3C93.8 62.3 94.5 61.6 94.5 60.7C94.5 59.8 93.7 59 92.8 59C92.3 59 91.8999 59.2 91.5999 59.5C85.9999 59.9 80.9999 62.3 77.2999 66.6C72.9999 71.5 70.9 78.6 71.5 85.4C71.6 86.1 71.6999 86.8 71.7999 87.4C71.1999 87.8 70.7 88.6 70.7 89.4C70.7 89.6 70.7 89.8 70.7 89.9C71.7 95.7 75.5999 103 82.2999 111.7C87.3999 118.3 92.6 123.6 93.5 124.6C94 125.1 94.7 125.4 95.3 125.4C95.5 125.4 95.8 125.4 96 125.3C98.1 126.3 101.5 127.3 105 127.3C105.2 127.3 105.5 127.3 105.7 127.3C108.2 127.2 110.8 126.7 112.8 126C115.5 125 117.4 123.6 118.4 121.9C120.2 118.7 120.3 115 118.8 110.7C117.9 108.2 116.4 105.4 114.3 102.6C117.2 97.8 119.3 93.7 120.1 90.2C120.2 89.9 120.2 89.6 120.2 89.4ZM116 120.4C114.6 122.8 109.9 124.1 105.8 124.2C103.4 124.3 101.2 123.8 99.6999 123.3C99.3999 123.2 99.1 123.1 98.8 123C100.8 120.8 104.5 116.6 108.2 111.6C109.9 109.4 111.3 107.3 112.7 105.3C116 110.2 118.5 115.9 116 120.4Z" fill="white"/>
</g>
</g>
<defs>
<clipPath id="clip0">
<rect width="192" height="192" fill="white"/>
</clipPath>
<clipPath id="clip1">
<rect width="153" height="153.1" fill="white" transform="translate(19 19)"/>
</clipPath>
</defs>
</svg>
